X:13
T:Return to Milltown
R:reel
M:C|
K:Ddor
"Dm"D2AD EDDB,|"C"C2EC FCEC|"Dm"D2AD EDDB,|"C"CDEG AEGE|
"Dm"D2AD EDDB,|"C"C2EC FCEC|"F"F2FD "C"E2ED|"C"CDEG "DMod"AEGE:|
K:Dmix
|"D"d2de f2ed|"G"(3B^cd ef gfge|"D"d2de f2ed|"AMod"=cAGE EDD2|
"D"d2de f2ed|"G"(3B^cd ef gfge|
K:Ddor
|"Bb"fafd "C"eged|"C"=cAGE "DMod"EDD2|
K:Dmix
|"D"d2de f2ed|"G"(3B^cd ef gfge|"D"d2de f2ed|"AMod"=cAGE EDD2|
"D"d2de f2ed|"G"(3B^cd ef gfge|
K:Ddor
|"Bb"fafd "C"eged|"C"=cAGE "DMod"EDD2|
